X:47
T:Begone Dull Care
N:page 27 on manuscript
M:6/8
L:1/8
K:C
V:1
G | c3 d3 | e3 z2 f | g>ag fef | e3 z2 G | c3 d3 | e3 z ff | efe Tdcd | c3 z2 :||: (e/f/) |
V:2
G | E3 G3 | c3 z2 d | e>fe dcd | c3 z2 G | E3 G3 | c3 z dd | cdc GEG | E3 z2 :||: (c/d/)|
V:1
g2 g g2 e | f2 f f2 d | e2 e edc | (e3{fe}d) GG | c3 d3 | e3 z2 f | efe Tdcd | c3 z2 :||
V:2
e2 e e2 c | d2 d d2 G | c2 c cGE | (c3{dc}B) GF | E3 G3 | c3 z2 d | cdc GEG | E3 z2 :||

